src/assets/svg/supp.svg

<svg width="42" height="42" viewBox="0 0 42 42" fill="none" xmlns="http://www.w3.org/2000/svg">
<g clip-path="url(#clip0)">
<path d="M7.38698 32.4802C6.79898 32.4802 6.23373 32.627 5.73225 32.9025C3.09059 29.5162 1.64062 25.3095 1.64062 21C1.64062 10.325 10.325 1.64062 21 1.64062C22.2978 1.64062 23.5949 1.76976 24.8555 2.02451C25.299 2.11423 25.7322 1.82712 25.8219 1.383C25.9116 0.938873 25.6245 0.506287 25.1804 0.416245C23.8131 0.14003 22.4067 0 21 0C15.3908 0 10.1171 2.1844 6.15074 6.15074C2.1844 10.1171 0 15.3908 0 21C0 25.7184 1.60217 30.323 4.51909 34.0145C4.14354 34.5755 3.94167 35.235 3.94167 35.9255C3.94167 36.8458 4.30023 37.711 4.95103 38.3615C5.60152 39.0123 6.46669 39.3708 7.38698 39.3708C8.30727 39.3708 9.17244 39.0123 9.82324 38.3615C10.474 37.711 10.8323 36.8455 10.8323 35.9252C10.8323 35.0052 10.474 34.1397 9.82324 33.4893C9.17244 32.8385 8.30727 32.4802 7.38698 32.4802ZM8.66295 37.2015C8.32233 37.5424 7.86891 37.7302 7.38698 37.7302C6.90504 37.7302 6.45195 37.5424 6.11101 37.2015C5.77007 36.8605 5.58229 36.4075 5.58229 35.9255C5.58229 35.4433 5.77007 34.9902 6.11101 34.6492C6.45163 34.3083 6.90504 34.1208 7.38698 34.1208C7.86891 34.1208 8.32201 34.3086 8.66295 34.6492C9.00389 34.9902 9.19167 35.4433 9.19167 35.9255C9.19167 36.4075 9.00389 36.8605 8.66295 37.2015Z" fill="black"/>
<path d="M37.4801 7.98457C38.3719 6.64676 38.2287 4.81772 37.0491 3.6382C36.3983 2.98772 35.5332 2.62915 34.6129 2.62915C33.6926 2.62915 32.8274 2.98772 32.1766 3.6382C31.5258 4.289 31.1676 5.15417 31.1676 6.07446C31.1676 6.99475 31.5258 7.85992 32.1766 8.51073C32.8274 9.16153 33.6926 9.51978 34.6129 9.51978C35.2009 9.51978 35.7661 9.37302 36.2676 9.09744C38.9093 12.4841 40.3592 16.6905 40.3592 21C40.3592 31.6749 31.6748 40.3594 20.9999 40.3594C19.7149 40.3594 18.43 40.2328 17.1812 39.9828C16.7371 39.8941 16.3048 40.1822 16.2158 40.6263C16.127 41.0707 16.4151 41.5027 16.8592 41.5918C18.2137 41.8625 19.6069 42 20.9999 42C26.6091 42 31.8828 39.8156 35.8491 35.8492C39.8155 31.8829 41.9999 26.6092 41.9999 21C41.9999 16.2813 40.3974 11.6763 37.4801 7.98457ZM33.3369 7.35075C32.996 7.00981 32.8082 6.55672 32.8082 6.07446C32.8082 5.59253 32.996 5.13943 33.3369 4.79849C33.6775 4.45755 34.1309 4.26978 34.6129 4.26978C35.0948 4.26978 35.5482 4.45755 35.8892 4.79849C36.5925 5.50217 36.5925 6.64708 35.8892 7.35075C35.5482 7.69138 35.0948 7.87915 34.6129 7.87915C34.1306 7.87915 33.6775 7.69138 33.3369 7.35075Z" fill="black"/>
<path d="M17.6147 35.1094C17.6147 35.5625 17.9823 35.9297 18.4351 35.9297H23.5643C24.0174 35.9297 24.3846 35.5625 24.3846 35.1094V33.5191C25.4632 33.2287 26.4943 32.8013 27.4633 32.2431L28.5861 33.3659C28.7399 33.5197 28.9485 33.6062 29.1664 33.6062C29.3837 33.6062 29.5926 33.5197 29.7464 33.3656L33.3718 29.7376C33.6919 29.4172 33.6919 28.8978 33.3718 28.5776L32.2503 27.4561C32.8085 26.4871 33.2359 25.456 33.5262 24.3774H35.1105C35.5636 24.3774 35.9308 24.0102 35.9308 23.5571V18.4279C35.9308 17.9748 35.5636 17.6076 35.1105 17.6076H33.5259C33.2356 16.5293 32.8085 15.4981 32.2503 14.5291L33.3657 13.4137C33.5195 13.2599 33.606 13.051 33.606 12.8334C33.6057 12.6158 33.5192 12.4069 33.3654 12.2531L29.7371 8.6277C29.417 8.30759 28.8976 8.30759 28.5771 8.62802L27.4633 9.74217C26.4943 9.18398 25.4632 8.75652 24.3846 8.4662V6.89062C24.3846 6.43753 24.0174 6.07031 23.5643 6.07031H18.4351C17.9823 6.07031 17.6147 6.43753 17.6147 6.89062V8.46652C16.5365 8.75652 15.5053 9.18398 14.5363 9.74217L13.4222 8.62802C13.1021 8.30791 12.5826 8.30759 12.2622 8.6277L8.63425 12.2534C8.48012 12.4072 8.3936 12.6158 8.3936 12.8334C8.3936 13.051 8.48012 13.2599 8.63393 13.4137L9.74936 14.5291C9.19116 15.4981 8.7637 16.529 8.47339 17.6076H6.89204C6.43895 17.6076 6.07173 17.9748 6.07173 18.4276L6.06885 23.5567C6.06853 23.7743 6.15505 23.9832 6.30885 24.1371C6.46266 24.2909 6.67127 24.3774 6.88916 24.3774H8.47339C8.7637 25.456 9.19116 26.4871 9.74936 27.4561L8.62784 28.5776C8.30772 28.8978 8.3074 29.4172 8.62784 29.7376L12.2532 33.3656C12.407 33.5194 12.6156 33.6062 12.8332 33.6062H12.8335C13.0511 33.6062 13.2597 33.5197 13.4135 33.3659L14.536 32.2431C15.5053 32.8013 16.5365 33.2287 17.6147 33.5191V35.1094ZM14.8577 30.5179C14.5331 30.308 14.106 30.3535 13.8323 30.6268L12.8335 31.6256L10.3678 29.1579L11.3656 28.1598C11.639 27.8865 11.6845 27.4593 11.4746 27.1347C10.7309 25.9837 10.2079 24.7222 9.92079 23.3847C9.8394 23.0069 9.50551 22.7368 9.11874 22.7368H7.70979L7.71172 19.2482H9.11874C9.50551 19.2482 9.8394 18.9784 9.92079 18.6003C10.2079 17.2631 10.7309 16.0015 11.4746 14.8505C11.6845 14.5259 11.639 14.0988 11.3656 13.8255L10.3742 12.8337L12.8419 10.368L13.8323 11.3588C14.106 11.6321 14.5328 11.6773 14.8577 11.4677C16.0084 10.724 17.27 10.201 18.6075 9.91393C18.9852 9.83253 19.2554 9.49832 19.2554 9.11188V7.71094H22.7439V9.11156C22.7439 9.49832 23.0138 9.83253 23.3919 9.9136C24.729 10.201 25.9909 10.7237 27.1416 11.4674C27.4662 11.6773 27.8933 11.6321 28.1667 11.3584L29.1574 10.368L31.6251 12.8337L30.6337 13.8251C30.36 14.0988 30.3148 14.5259 30.5247 14.8505C31.2685 16.0015 31.7911 17.2631 32.0785 18.6003C32.1596 18.9784 32.4938 19.2482 32.8806 19.2482H34.2902V22.7368H32.8806C32.4938 22.7368 32.1599 23.0069 32.0785 23.3847C31.7914 24.7218 31.2685 25.9837 30.5247 27.1344C30.3148 27.4593 30.3604 27.8865 30.6337 28.1598L31.6315 29.1576L29.1658 31.6253L28.167 30.6268C27.8933 30.3532 27.4662 30.308 27.1416 30.5179C25.9906 31.2616 24.729 31.7842 23.3919 32.0717C23.0138 32.153 22.7439 32.4869 22.7439 32.8737V34.2891H19.2554V32.8737C19.2554 32.4873 18.9852 32.153 18.6075 32.0717C17.2703 31.7845 16.0087 31.2616 14.8577 30.5179Z" fill="#E10303"/>
<path d="M27.778 21.0001C27.778 17.2625 24.7374 14.2219 20.9998 14.2219C17.2623 14.2219 14.2217 17.2625 14.2217 21.0001C14.2217 24.7376 17.2623 27.7782 20.9998 27.7782C24.7374 27.7782 27.778 24.7376 27.778 21.0001ZM15.8623 21.0001C15.8623 18.1671 18.1669 15.8625 20.9998 15.8625C23.8328 15.8625 26.1374 18.1674 26.1374 21.0001C26.1374 23.8327 23.8328 26.1376 20.9998 26.1376C18.1669 26.1376 15.8623 23.833 15.8623 21.0001Z" fill="#E10303"/>
<path d="M28.5532 3.1024C28.7692 3.1024 28.9807 3.0146 29.1332 2.86208C29.2857 2.70859 29.3735 2.4971 29.3735 2.28113C29.3735 2.06644 29.2861 1.85463 29.1332 1.70114C28.9807 1.54861 28.7692 1.46082 28.5532 1.46082C28.3366 1.46082 28.1261 1.54861 27.9736 1.70114C27.8207 1.85463 27.7329 2.06548 27.7329 2.28113C27.7329 2.49774 27.8207 2.70859 27.9736 2.86208C28.1261 3.0146 28.3366 3.1024 28.5532 3.1024Z" fill="black"/>
<path d="M13.4824 38.9124C13.2668 38.9124 13.055 39.0002 12.9024 39.1527C12.7499 39.3052 12.6621 39.517 12.6621 39.7327C12.6621 39.9493 12.7499 40.1601 12.9024 40.3127C13.055 40.4652 13.2668 40.553 13.4824 40.553C13.6981 40.553 13.9099 40.4652 14.0624 40.3127C14.2149 40.1601 14.3027 39.9483 14.3027 39.7327C14.3027 39.517 14.2149 39.3052 14.0624 39.1527C13.9099 39.0002 13.6981 38.9124 13.4824 38.9124Z" fill="black"/>
</g>
<defs>
<clipPath id="clip0">
<rect width="42" height="42" fill="white"/>
</clipPath>
</defs>
</svg>

<svg width="42" height="42" fill="none" xmlns="http://www.w3.org/2000/svg">
  <g clip-path="url(#prefix__clip0)">
    <path
      d="M7.387 32.48c-.588 0-1.153.147-1.655.423A19.395 19.395 0 011.641 21C1.64 10.325 10.325 1.64 21 1.64c1.298 0 2.595.13 3.855.385A.82.82 0 0025.18.416 21.156 21.156 0 0021 0 20.863 20.863 0 006.15 6.15 20.863 20.863 0 000 21c0 4.718 1.602 9.323 4.52 13.014a3.42 3.42 0 00-.578 1.911c0 .92.358 1.786 1.009 2.437.65.65 1.516 1.009 2.436 1.009.92 0 1.785-.359 2.436-1.01a3.422 3.422 0 001.01-2.436c0-.92-.359-1.785-1.01-2.436a3.423 3.423 0 00-2.436-1.009zm1.276 4.722c-.34.34-.794.528-1.276.528s-.935-.188-1.276-.528a1.793 1.793 0 01-.529-1.276c0-.483.188-.936.529-1.277.34-.34.794-.528 1.276-.528s.935.188 1.276.528c.34.341.529.794.529 1.276 0 .483-.188.936-.529 1.277zM37.48 7.985a3.451 3.451 0 00-.43-4.347 3.424 3.424 0 00-2.437-1.009c-.92 0-1.786.359-2.436 1.01a3.423 3.423 0 00-1.01 2.435c0 .92.359 1.786 1.01 2.437.65.65 1.516 1.009 2.436 1.009.588 0 1.153-.147 1.655-.423A19.395 19.395 0 0140.359 21c0 10.675-8.684 19.36-19.36 19.36-1.284 0-2.569-.127-3.818-.377a.82.82 0 00-.322 1.609c1.355.27 2.748.408 4.14.408 5.61 0 10.884-2.184 14.85-6.15A20.862 20.862 0 0042 21 21.04 21.04 0 0037.48 7.985zm-4.143-.634a1.793 1.793 0 01-.529-1.277c0-.481.188-.935.529-1.276.34-.34.794-.528 1.276-.528s.935.188 1.276.528a1.807 1.807 0 010 2.553c-.34.34-.794.528-1.276.528s-.935-.188-1.276-.528z"
      fill="#000" />
    <path
      d="M17.615 35.11c0 .453.367.82.82.82h5.13a.82.82 0 00.82-.82v-1.59c1.078-.291 2.11-.719 3.078-1.277l1.123 1.123a.82.82 0 001.16 0l3.626-3.628a.82.82 0 000-1.16l-1.122-1.122c.559-.969.986-2 1.276-3.079h1.584a.82.82 0 00.82-.82v-5.13a.82.82 0 00-.82-.82h-1.584a12.847 12.847 0 00-1.276-3.078l1.116-1.115a.821.821 0 000-1.16l-3.629-3.626a.82.82 0 00-1.16 0l-1.114 1.114c-.969-.558-2-.985-3.078-1.276V6.891a.82.82 0 00-.82-.82h-5.13a.82.82 0 00-.82.82v1.576c-1.078.29-2.11.717-3.079 1.275l-1.114-1.114a.82.82 0 00-1.16 0l-3.628 3.625a.82.82 0 000 1.16l1.115 1.116c-.558.97-.985 2-1.276 3.079H6.892a.82.82 0 00-.82.82l-.003 5.129a.82.82 0 00.82.82h1.584c.29 1.079.718 2.11 1.276 3.08l-1.121 1.12a.82.82 0 000 1.16l3.625 3.629a.82.82 0 001.16 0l1.123-1.123c.97.558 2 .986 3.079 1.276v1.59zm-2.757-4.592a.82.82 0 00-1.026.109l-.998.999-2.466-2.468.998-.998a.82.82 0 00.109-1.025 11.228 11.228 0 01-1.554-3.75.82.82 0 00-.802-.648h-1.41l.003-3.489h1.407a.82.82 0 00.802-.648 11.23 11.23 0 011.554-3.75.82.82 0 00-.11-1.024l-.99-.992 2.467-2.466.99.99a.82.82 0 001.026.11 11.224 11.224 0 013.75-1.554.82.82 0 00.647-.802V7.71h3.489v1.4c0 .387.27.722.648.803 1.337.287 2.599.81 3.75 1.553a.82.82 0 001.025-.109l.99-.99 2.468 2.466-.991.991a.82.82 0 00-.11 1.026 11.234 11.234 0 011.554 3.75.82.82 0 00.803.647h1.41v3.489h-1.41a.82.82 0 00-.803.648 11.225 11.225 0 01-1.553 3.75.82.82 0 00.109 1.025l.997.998-2.465 2.467-.999-.998a.82.82 0 00-1.025-.11 11.238 11.238 0 01-3.75 1.555.82.82 0 00-.648.802v1.415h-3.489v-1.415a.82.82 0 00-.647-.802 11.232 11.232 0 01-3.75-1.554z"
      fill="#E10303" />
    <path
      d="M27.778 21A6.786 6.786 0 0021 14.222 6.786 6.786 0 0014.222 21 6.786 6.786 0 0021 27.778 6.786 6.786 0 0027.778 21zm-11.916 0A5.143 5.143 0 0121 15.863 5.143 5.143 0 0126.137 21 5.143 5.143 0 0121 26.138 5.143 5.143 0 0115.862 21z"
      fill="#E10303" />
    <path
      d="M28.553 3.102a.826.826 0 00.58-.24.83.83 0 00.24-.58.829.829 0 00-.24-.58.826.826 0 00-.58-.241.824.824 0 00-.82.82.824.824 0 00.82.821zM13.482 38.912a.827.827 0 00-.58.24.827.827 0 00-.24.58c0 .217.088.428.24.58.153.153.365.241.58.241a.827.827 0 00.58-.24.827.827 0 00.24-.58.827.827 0 00-.24-.58.827.827 0 00-.58-.24z"
      fill="#000" />
  </g>
  <defs>
    <clipPath id="prefix__clip0">
      <path fill="#fff" d="M0 0h42v42H0z" />
    </clipPath>
  </defs>
</svg>
